source/img/sprite/vk.svg

<svg width="15" height="15" viewBox="0 0 15 15" fill="none" xmlns="http://www.w3.org/2000/svg">
<path d="M8.72271 9.45361C9.16539 9.31053 9.73216 10.3982 10.3355 10.8145C10.7884 11.1299 11.1352 11.0618 11.1352 11.0618L12.7434 11.0386C12.7434 11.0386 13.5838 10.9868 13.1865 10.3191C13.1536 10.2635 12.9536 9.82405 11.9895 8.91971C10.9815 7.9737 11.1181 8.12697 12.3317 6.49147C13.0712 5.49452 13.3671 4.88561 13.2745 4.6263C13.1856 4.37672 12.6424 4.44154 12.6424 4.44154L10.8305 4.45405C10.6541 4.45451 10.5045 4.50915 10.4365 4.69252C10.4351 4.69437 10.1489 5.46396 9.76735 6.11825C8.96118 7.50231 8.63936 7.57594 8.506 7.48935C8.19992 7.28885 8.27725 6.68503 8.27725 6.25578C8.27725 4.91432 8.47729 4.35495 7.88551 4.21048C7.68779 4.16232 7.54332 4.13084 7.03905 4.12621C6.39449 4.11648 5.84716 4.12621 5.53692 4.27855C5.33086 4.38181 5.17296 4.60824 5.26881 4.62121C5.3892 4.63742 5.65916 4.6953 5.80363 4.89256C5.98932 5.14816 5.98376 5.72096 5.98376 5.72096C5.98376 5.72096 6.0898 7.30042 5.73371 7.49629C5.48922 7.63058 5.1549 7.35645 4.43578 6.09973C4.06858 5.45702 3.79121 4.7467 3.79121 4.7467C3.79121 4.7467 3.7375 4.61473 3.64026 4.54249C3.52449 4.45683 3.36243 4.42951 3.36243 4.42951L1.64265 4.44062C1.64265 4.44062 1.38427 4.44803 1.28935 4.56194C1.20507 4.66288 1.2824 4.87126 1.2824 4.87126C1.2824 4.87126 2.62942 8.05751 4.15471 9.66245C5.55312 11.1359 7.14231 11.0382 7.14231 11.0382H7.86236C7.86236 11.0382 8.07953 11.0132 8.19066 10.8937C8.29439 10.7826 8.28976 10.5737 8.28976 10.5737C8.28976 10.5737 8.2754 9.59716 8.72271 9.45361Z" fill="currentColor"/>
</svg>

<svg xmlns="http://www.w3.org/2000/svg" width="15" height="15" fill="none"><path fill="currentColor" d="M8.723 9.454c.442-.143 1.01.944 1.612 1.36.453.316.8.248.8.248l1.608-.023s.84-.052.444-.72c-.033-.056-.233-.495-1.197-1.4-1.008-.945-.872-.792.342-2.428.74-.996 1.035-1.605.942-1.865-.088-.25-.632-.184-.632-.184l-1.811.012c-.177 0-.326.055-.394.239-.002.001-.288.771-.67 1.425C8.961 7.502 8.64 7.576 8.506 7.49c-.306-.2-.229-.804-.229-1.233 0-1.342.2-1.901-.391-2.046-.198-.048-.343-.08-.847-.084-.645-.01-1.192 0-1.502.153-.206.103-.364.33-.268.342.12.016.39.074.535.272.185.255.18.828.18.828s.106 1.58-.25 1.775c-.245.135-.58-.14-1.298-1.396-.367-.643-.645-1.353-.645-1.353s-.054-.132-.15-.205c-.117-.085-.279-.112-.279-.112l-1.72.01s-.258.008-.353.122c-.084.1-.007.31-.007.31s1.347 3.186 2.873 4.79c1.398 1.474 2.987 1.376 2.987 1.376h.72s.218-.025.329-.144c.103-.111.099-.32.099-.32s-.015-.977.433-1.12Z"/></svg>
